X: 66
T:Pete Coe Tune No. 2
M:6/8
L:1/8
C:Pete Coe
R:Jig
N:http://www.lesession.co.uk
Z:Steve Mansfield 1998-2001
K:D
FAA Add | dff f2 f | efg cde | def A2 A |
FAA Add | dff f2 f | efg cde | d3 d3 ::
fga dfa | agf g2 g | efg ceg | ba^g a2 a |
fga dfa | agf g2 f | efg cde | d3 d3 :|

